X:41
T:Torryburn Lasses,aka. RDO.41
T:Seymour’s Reel,aka. RDO.41
M:C|
L:1/8
Q:1/2=80
S:Robert D. Owen MS,Indiana,1826.
R:.Country Dance
O:Indiana,USA
A:New Harmony
N:”Country Dance” in MS…CGP…
Z:vmp.Chris Partington
K:G
D|G2BG Bdd2|c2ec egg2|G2BG Bcdg|edcB A2G:|!
d|g2bg afed|e>def gdBG|g2bg afgd|(ed)efg3a|!
(ba)gf (gf)ed|{f}edef gdBG|cBcd efge|dBGBA2G|]

